X: 1
T:Hark to the Whitendale Hunt
R:Jig
M:6/8
N:Whitendale is an isolated valley in the Forest of Bowland
K:C
G | GEG ceg | gfe d2f | efe edc | Gdd d2G | \
GEG ceg | gfe d2f | ege fdB | c2c c2 :|
|:g | egc' c'ba | agf e2 c | egc egc | Bdd d2g | \
egc' c'ba | agf e2c | egc fdB | c2c c2:|
